X: 18
T:Go To The Devil & Shake Himself. WCa.18
M:6/8
Q:120
S:Wm. Calvert MS, 1812, Leyburn, Yorks.
R:jig
O:England
A:North Yorkshire
Z:vmp.Chris Partington, May 2003
K:C
Gcc cBA|GAG GEG|Gcc c2d|ecAA2G|!
Gcc cBA|GAG GEG|cec dfd|eccc2c::!
gec cBc|AFFF2F|afd ded|BGGG2G|!
Gcc cBA|GAG GFG|cec dfd|eccc2:||
